X:79
T: Fehér fuszulyka virág
M: 4/4
L: 1/4
K: F
GGgg | afc2 | 
ffgf | e<d d2 | 
f_edc | dBF2 | 
BBcB | A<GG2 | 


